public/+₵3,920.svg

<svg width="191" height="50" viewBox="0 0 191 50" fill="none" xmlns="http://www.w3.org/2000/svg">
<path d="M8.388 41V32.004H0.12V23.944H8.388V14.948H16.812V23.944H25.08V32.004H16.812V41H8.388ZM46.1197 45.42V41.52C42.757 41.3467 39.8277 40.5147 37.3317 39.024C34.8704 37.5333 32.9464 35.5053 31.5597 32.94C30.2077 30.3747 29.5317 27.4107 29.5317 24.048C29.5317 20.616 30.225 17.5653 31.6117 14.896C33.033 12.192 34.9917 10.0253 37.4877 8.396C39.9837 6.76667 42.861 5.83066 46.1197 5.588V0.803997H50.5397V5.692C53.1397 5.96933 55.2717 6.69733 56.9357 7.876L55.5837 15.832C54.7517 15.4507 53.9024 15.156 53.0357 14.948C52.169 14.7053 51.337 14.5667 50.5397 14.532V32.472C51.337 32.4027 52.117 32.264 52.8797 32.056C53.6424 31.848 54.5437 31.536 55.5837 31.12L56.9877 39.024C54.977 40.2027 52.8277 40.9827 50.5397 41.364V45.42H46.1197ZM40.7637 23.736C40.7637 25.8507 41.2317 27.636 42.1677 29.092C43.1037 30.5133 44.421 31.5013 46.1197 32.056V15C44.421 15.5893 43.1037 16.6293 42.1677 18.12C41.2317 19.6107 40.7637 21.4827 40.7637 23.736ZM69.9507 41.572C68.1481 41.572 66.3281 41.3813 64.4907 41C62.6881 40.6533 61.0241 40.1507 59.4987 39.492L61.2147 31.536C64.0227 32.68 66.5707 33.252 68.8587 33.252C71.7014 33.252 73.1227 32.1773 73.1227 30.028C73.1227 28.6413 72.3947 27.6533 70.9387 27.064C69.4827 26.44 67.0561 26.128 63.6587 26.128V19.004C69.8294 19.004 72.9147 17.7733 72.9147 15.312C72.9147 14.5493 72.5507 13.96 71.8227 13.544C71.1294 13.0933 70.1587 12.868 68.9107 12.868C65.9987 12.868 63.3814 13.4747 61.0587 14.688L59.0307 7.356C62.4281 5.41467 66.2587 4.444 70.5227 4.444C74.0241 4.444 76.7801 5.24133 78.7907 6.836C80.8014 8.396 81.8067 10.5453 81.8067 13.284C81.8067 15.0173 81.3734 16.6293 80.5067 18.12C79.6747 19.576 78.4787 20.8067 76.9187 21.812C79.1721 22.6093 80.8014 23.8053 81.8067 25.4C82.8467 26.96 83.3667 28.572 83.3667 30.236C83.3667 32.5587 82.8121 34.5693 81.7027 36.268C80.5934 37.9667 79.0334 39.284 77.0227 40.22C75.0121 41.1213 72.6547 41.572 69.9507 41.572ZM88.2884 49.788L86.4684 45.212C89.5191 44.172 91.0444 42.872 91.0444 41.312C89.6578 41.312 88.4964 40.8093 87.5604 39.804C86.6591 38.7987 86.2084 37.5333 86.2084 36.008C86.2084 34.4827 86.7284 33.2347 87.7684 32.264C88.8431 31.2587 90.2298 30.756 91.9284 30.756C93.8004 30.756 95.2564 31.4147 96.2964 32.732C97.3711 34.0147 97.9084 35.7827 97.9084 38.036C97.9084 40.9827 97.0764 43.4787 95.4124 45.524C93.7484 47.5693 91.3738 48.9907 88.2884 49.788ZM99.4368 16.924C99.4368 14.4973 99.9914 12.348 101.101 10.476C102.245 8.604 103.857 7.13066 105.937 6.056C108.017 4.98133 110.478 4.444 113.321 4.444C116.683 4.444 119.474 5.15467 121.693 6.576C123.946 7.99733 125.627 9.97333 126.737 12.504C127.881 15 128.453 17.9293 128.453 21.292C128.453 25.2093 127.69 28.6933 126.165 31.744C124.674 34.76 122.577 37.1173 119.873 38.816C117.169 40.5147 114.014 41.364 110.409 41.364C108.571 41.364 106.855 41.1733 105.261 40.792C103.666 40.376 102.245 39.7173 100.997 38.816L103.129 31.328C104.134 31.8827 105.174 32.316 106.249 32.628C107.323 32.9053 108.398 33.044 109.473 33.044C112.003 33.044 113.997 32.1773 115.453 30.444C116.943 28.676 117.81 26.2493 118.053 23.164C117.186 24.7587 116.007 25.92 114.517 26.648C113.061 27.376 111.674 27.74 110.357 27.74C108.138 27.74 106.197 27.2893 104.533 26.388C102.903 25.4867 101.638 24.2213 100.737 22.592C99.8701 20.9627 99.4368 19.0733 99.4368 16.924ZM108.849 16.248C108.849 17.4267 109.247 18.38 110.045 19.108C110.877 19.8013 111.951 20.148 113.269 20.148C114.101 20.148 114.933 20.044 115.765 19.836C116.597 19.5933 117.359 19.2467 118.053 18.796C117.671 14.22 116.077 11.932 113.269 11.932C111.917 11.932 110.842 12.3307 110.045 13.128C109.247 13.9253 108.849 14.9653 108.849 16.248ZM131.925 41V33.668C135.808 29.9933 138.841 26.7867 141.025 24.048C143.209 21.2747 144.301 18.9693 144.301 17.132C144.301 15.9187 143.954 15.0173 143.261 14.428C142.568 13.804 141.666 13.492 140.557 13.492C138.234 13.492 135.998 14.2027 133.849 15.624L131.301 7.512C132.896 6.50666 134.646 5.744 136.553 5.224C138.494 4.704 140.401 4.444 142.273 4.444C145.116 4.444 147.456 4.94667 149.293 5.952C151.13 6.95733 152.5 8.32666 153.401 10.06C154.337 11.7933 154.805 13.7693 154.805 15.988C154.805 19.3507 153.73 22.4533 151.581 25.296C149.466 28.1387 146.294 30.8427 142.065 33.408H154.597V41H131.925ZM174.438 41.416C171.283 41.416 168.475 40.636 166.014 39.076C163.552 37.4813 161.611 35.2973 160.19 32.524C158.803 29.716 158.11 26.5093 158.11 22.904C158.11 19.3333 158.803 16.1613 160.19 13.388C161.611 10.6147 163.552 8.43067 166.014 6.836C168.475 5.24133 171.283 4.444 174.438 4.444C176.795 4.444 178.962 4.912 180.938 5.848C182.914 6.74933 184.63 8.032 186.086 9.696C187.542 11.3253 188.668 13.2667 189.466 15.52C190.298 17.7733 190.714 20.2347 190.714 22.904C190.714 26.4747 190.003 29.664 188.582 32.472C187.195 35.2453 185.271 37.4293 182.81 39.024C180.383 40.6187 177.592 41.416 174.438 41.416ZM174.438 32.524C176.171 32.524 177.523 31.6747 178.494 29.976C179.499 28.2773 180.002 25.92 180.002 22.904C180.002 19.9573 179.499 17.6347 178.494 15.936C177.523 14.2027 176.171 13.336 174.438 13.336C172.67 13.336 171.283 14.1853 170.278 15.884C169.307 17.5827 168.822 19.9227 168.822 22.904C168.822 25.8507 169.324 28.1907 170.33 29.924C171.37 31.6573 172.739 32.524 174.438 32.524Z" fill="white"/>
</svg>

<svg xmlns="http://www.w3.org/2000/svg" width="191" height="50" fill="none"><path fill="#fff" d="M8.388 41v-8.996H.12v-8.06h8.268v-8.996h8.424v8.996h8.268v8.06h-8.268V41zm37.732 4.42v-3.9q-5.044-.26-8.788-2.496-3.693-2.236-5.772-6.084-2.028-3.848-2.028-8.892 0-5.148 2.08-9.152 2.132-4.056 5.876-6.5t8.632-2.808V.804h4.42v4.888q3.9.415 6.396 2.184l-1.352 7.956a14 14 0 0 0-2.548-.884 11 11 0 0 0-2.496-.416v17.94a13 13 0 0 0 2.34-.416q1.144-.312 2.704-.936l1.404 7.904a18.7 18.7 0 0 1-6.448 2.34v4.056zm-5.356-21.684q0 3.172 1.404 5.356 1.404 2.132 3.952 2.964V15q-2.548.885-3.952 3.12t-1.404 5.616M69.95 41.572q-2.704 0-5.46-.572-2.705-.52-4.992-1.508l1.716-7.956q4.212 1.716 7.644 1.716 4.263 0 4.264-3.224 0-2.08-2.184-2.964-2.184-.936-7.28-.936v-7.124q9.255 0 9.256-3.692 0-1.144-1.092-1.768-1.04-.675-2.912-.676-4.368 0-7.852 1.82L59.03 7.356q5.096-2.912 11.492-2.912 5.252 0 8.268 2.392 3.016 2.34 3.016 6.448a9.46 9.46 0 0 1-1.3 4.836q-1.248 2.184-3.588 3.692 3.38 1.195 4.888 3.588 1.56 2.34 1.56 4.836 0 3.484-1.664 6.032-1.665 2.548-4.68 3.952-3.015 1.352-7.072 1.352m18.337 8.216-1.82-4.576q4.576-1.56 4.576-3.9-2.08 0-3.484-1.508-1.351-1.507-1.352-3.796 0-2.288 1.56-3.744 1.613-1.508 4.16-1.508 2.808 0 4.368 1.976 1.612 1.924 1.612 5.304 0 4.42-2.496 7.488t-7.124 4.264m11.149-32.864q0-3.64 1.664-6.448 1.716-2.808 4.836-4.42t7.384-1.612q5.043 0 8.372 2.132 3.38 2.132 5.044 5.928 1.716 3.744 1.716 8.788 0 5.876-2.288 10.452-2.236 4.524-6.292 7.072t-9.464 2.548q-2.757 0-5.148-.572-2.392-.624-4.264-1.976l2.132-7.488q1.507.832 3.12 1.3 1.611.416 3.224.416 3.795 0 5.98-2.6 2.235-2.652 2.6-7.28-1.3 2.392-3.536 3.484-2.184 1.092-4.16 1.092-3.328 0-5.824-1.352a9.5 9.5 0 0 1-3.796-3.796q-1.3-2.445-1.3-5.668m9.412-.676q0 1.768 1.196 2.86 1.247 1.04 3.224 1.04 1.248 0 2.496-.312a8.6 8.6 0 0 0 2.288-1.04q-.573-6.864-4.784-6.864-2.028 0-3.224 1.196t-1.196 3.12M131.925 41v-7.332q5.824-5.512 9.1-9.62 3.276-4.16 3.276-6.916 0-1.82-1.04-2.704-1.04-.936-2.704-.936-3.484 0-6.708 2.132l-2.548-8.112a19.3 19.3 0 0 1 5.252-2.288q2.912-.78 5.72-.78 4.264 0 7.02 1.508t4.108 4.108q1.404 2.6 1.404 5.928 0 5.044-3.224 9.308-3.173 4.264-9.516 8.112h12.532V41zm42.513.416q-4.733 0-8.424-2.34-3.693-2.392-5.824-6.552-2.08-4.212-2.08-9.62 0-5.356 2.08-9.516 2.131-4.16 5.824-6.552t8.424-2.392q3.536 0 6.5 1.404a15.1 15.1 0 0 1 5.148 3.848q2.183 2.444 3.38 5.824 1.248 3.38 1.248 7.384 0 5.356-2.132 9.568-2.08 4.16-5.772 6.552-3.64 2.392-8.372 2.392m0-8.892q2.6 0 4.056-2.548 1.508-2.548 1.508-7.072 0-4.42-1.508-6.968-1.457-2.6-4.056-2.6-2.652 0-4.16 2.548-1.456 2.549-1.456 7.02 0 4.42 1.508 7.02 1.56 2.6 4.108 2.6"/></svg>
